X: 539
T: Dehr Olmada Bu Sûr ile
C: Dede Efendi
O: Turkey
F: http://compmusic.upf.edu/node/140
N: buselik--yuruksemai--yuruksemai--dehr_olmada--dede_efendi
N: makam= buselik
N: form= yuruksemai
N: usul= yuruksemai = 6/8
M: 6/8
L: 1/16
K: C    
Q: 1/4=78
%%MIDI tuningsystem comma53
c8 B4A4 ^G8  | A8 B4c4 d3cB2c2  | d4e2d2 c4B4 A8  | \
w:  Dehr_  |  ol ma da  bu   |  sûr_ *  *  i le  mâ  | 
g3fe2a2 g2f2e2d2 e3dc4  | 
w:  mu   | 
d4_7/8e4 d4c4 B2c2d2{e}dc  | c16 g8  | \
w:  mûr_ *  u  me ser  |  ret   SAZ  | 
g12a4 b2a2g2^f2  | e8 e4a4 e6d2  | 
w:  Ol  |  sun  dil_ i  şâ  | 
d4e2d2 c4B2c2 A8  | g3fe2g2 f3ed2f2 e2d2cBA2  | \
w:  hâ *  *  ne de  *  pür   |  nu   | 
c8 B4A4 ^G2A2B2{c}BA  | 
w:  nur_ u  me ser  | 
A16 c8  | c16 c4d4  | d16 g8  | ^f2g2a2g2 g4g4 g6f2  | \
w:  ret   SAZ  |  Yâr   |  yâr   |  can  *  *  *  *  sa na   | 
g6^f2 g4a4 g3f_7/8ede2  | 
w:  ben *  de  i  fer  | 
^f2g2a2g2 g4g4 f2_7/8e2d2c2  | d4_7/8e4 d4c4 B2c2d2{e}dc  | \
w:  man  *  *  *  *  sa na   |  şâh_ *  ı  ci hâ  | 
c16 g8  | 
w:  nım   SAZ  | 
g16 g6f2  | a3gf8f4 f6_1/4e2  | g3f_1/4e18d2  | \
w:  Ah   |  ah   |  ah   | 
_1/4e6dc c6z2 g8  | g6f2 a4a2g2 f8  | 
w:  ah  *  *  *  ol  |  du  *  yi ne  *  sa  | 
f6_1/4e2 g4g2f2 e8  | _1/4e6d2 f4f2e2 d8  | \
w:  yen *  de  ci *  hân   |  hür *  re  mü *  han  | 
_7/8e6dc c8 z8  | f16 f6_1/4e2  | g6a2 _b2a2g2^f2 _7/8e3dc4  | 
w:  dan    |  Yâr   |  yâr   | 
d4_7/8e4 d4c4 B2c2d2{e}dc  | c12^f2g2 a8  | \
w:  hür *  re  mü han  |  dan  SAZ  | 
a8 g2f2e2d2 c3BA4  | 
w:  pür   | 
c8 B4A4 ^G2A2B2{c}BA  | A16 z8  | c8 B4A4 ^G8  | \
w:  nur_ u  me ser  |  ret    |  Dehr_  | 
A8 B4c4 d3cB2c2  | 
w:  ol ma da  bu   | 
d4e2d2 c4B4 A8  | g3fe2a2 g2f2e2d2 e3dc4  | \
w:  sûr_ *  *  i le  mâ  |  mu   | 
d4_7/8e4 d4c4 B2c2d2{e}dc  | 
w:  mûr_ *  u  me ser  | 
c16 g8  | g12a4 b2a2g2^f2  | e8 e4a4 e6d2  | \
w:  ret   SAZ  |  Ol  |  sun  dil_ i  şâ  | 
d4e2d2 c4B2c2 A8  | g3fe2g2 f3ed2f2 e2d2cBA2  | 
w:  hâ *  *  ne de  *  pür   |  nu   | 
c8 B4A4 ^G2A2B2{c}BA  | A16 c8  | c16 c4d4  | \
w:  nur_ u  me ser  |  ret   SAZ  |  Yâr   | 
d16 g8  | ^f2g2a2g2 g4g4 g6f2  | 
w:  yâr   |  can  *  *  *  *  sa na   | 
g6^f2 g4a4 g3f_7/8ede2  | ^f2g2a2g2 g4g4 f2_7/8e2d2c2  | \
w:  ben *  de  i  fer  |  man  *  *  *  *  sa na   | 
d4_7/8e4 d4c4 B2c2d2{e}dc  | 
w:  şâh_ *  ı  ci hâ  | 
c16 g8  | g16 g6f2  | a3gf8f4 f6_1/4e2  | \
w:  nım   SAZ  |  Ah   |  ah   | 
g3f_1/4e18d2  | _1/4e6dc c6z2 g8  | 
w:  ah   |  ah  *  *  *  ol  | 
g6f2 a4a2g2 f8  | f6_1/4e2 g4g2f2 e8  | \
w:  du  *  yi ne  *  sa  |  yen *  de  ci *  hân   | 
_1/4e6d2 f4f2e2 d8  | _7/8e6dc c8 z8  | 
w:  hür *  re  mü *  han  |  dan    | 
f16 f6_1/4e2  | g6a2 _b2a2g2^f2 _7/8e3dc4  | \
w:  Yâr   |  yâr   | 
d4_7/8e4 d4c4 B2c2d2{e}dc  | 
w:  hür *  re  mü han  | 
c12^f2g2 a8  | a8 g2f2e2d2 c3BA4  | c8 B4A4 ^G2A2B2{c}BA  | \
w:  dan  SAZ  |  pür   |  nur_ u  me ser  | 
A16 z8  | 
w:  ret    | 
|


